assets/icons/vision.svg

<svg width="20" height="20" viewBox="0 0 20 20" fill="none" xmlns="http://www.w3.org/2000/svg">
<path d="M2.08301 6.82413C2.16967 5.07413 2.42884 3.98246 3.20551 3.20746C3.98051 2.43079 5.07217 2.17163 6.82217 2.08496M17.9163 6.82413C17.8297 5.07413 17.5705 3.98246 16.7938 3.20746C16.0188 2.43079 14.9272 2.17163 13.1772 2.08496M13.1772 17.9183C14.9272 17.8316 16.0188 17.5725 16.7938 16.7958C17.5705 16.0208 17.8297 14.9291 17.9163 13.1791M6.82217 17.9183C5.07217 17.8316 3.98051 17.5725 3.20551 16.7958C2.42884 16.0208 2.16967 14.9291 2.08301 13.1791" stroke="currentColor" stroke-width="1.25" stroke-linecap="round" stroke-linejoin="round"/>
<path d="M16.3622 9.43329C16.5647 9.68663 16.6663 9.81413 16.6663 10.0016C16.6663 10.1891 16.5647 10.3166 16.3622 10.57C15.4513 11.71 13.1255 14.1683 9.99967 14.1683C6.87384 14.1683 4.54801 11.71 3.63717 10.57C3.43467 10.3166 3.33301 10.1891 3.33301 10.0016C3.33301 9.81413 3.43467 9.68663 3.63717 9.43329C4.54801 8.29329 6.87384 5.83496 9.99967 5.83496C13.1255 5.83496 15.4513 8.29329 16.3622 9.43329Z" stroke="currentColor" stroke-width="1.25"/>
<path d="M11.6663 10.0016C11.6663 9.5596 11.4907 9.13568 11.1782 8.82312C10.8656 8.51056 10.4417 8.33496 9.99967 8.33496C9.55765 8.33496 9.13372 8.51056 8.82116 8.82312C8.5086 9.13568 8.33301 9.5596 8.33301 10.0016C8.33301 10.4437 8.5086 10.8676 8.82116 11.1801C9.13372 11.4927 9.55765 11.6683 9.99967 11.6683C10.4417 11.6683 10.8656 11.4927 11.1782 11.1801C11.4907 10.8676 11.6663 10.4437 11.6663 10.0016Z" stroke="currentColor" stroke-width="1.25"/>
</svg>

<svg xmlns="http://www.w3.org/2000/svg" width="20" height="20" fill="none" viewBox="0 0 20 20"><path stroke="currentColor" stroke-linecap="round" stroke-linejoin="round" stroke-width="1.25" d="M2.083 6.824c.087-1.75.346-2.842 1.123-3.617.775-.776 1.866-1.035 3.616-1.122m11.094 4.74c-.086-1.75-.346-2.843-1.122-3.618-.775-.776-1.867-1.035-3.617-1.122m0 15.833c1.75-.086 2.842-.345 3.617-1.122.776-.775 1.036-1.867 1.122-3.617M6.822 17.92c-1.75-.087-2.841-.346-3.616-1.123-.777-.775-1.036-1.867-1.123-3.617"/><path stroke="currentColor" stroke-width="1.25" d="M16.362 9.433c.203.254.304.381.304.569s-.101.315-.304.568c-.91 1.14-3.236 3.598-6.362 3.598S4.548 11.71 3.637 10.57c-.202-.253-.304-.38-.304-.568s.102-.315.304-.569C4.548 8.293 6.874 5.835 10 5.835s5.451 2.458 6.362 3.598Z"/><path stroke="currentColor" stroke-width="1.25" d="M11.666 10.002a1.667 1.667 0 1 0-3.333 0 1.667 1.667 0 0 0 3.333 0Z"/></svg>
